Newaita-dark/apps/64/libreoffice-base.svg

<?xml version="1.0" encoding="UTF-8"?>
<svg xmlns="http://www.w3.org/2000/svg" xmlns:xlink="http://www.w3.org/1999/xlink" width="64px" height="64px" viewBox="0 0 64 64" version="1.1">
<defs>
<linearGradient id="linear0" gradientUnits="userSpaceOnUse" x1="254" y1="233.5" x2="254" y2="254.666672" gradientTransform="matrix(0.125012,0,0,0.125012,-0.00000763012,26.87757)">
<stop offset="0" style="stop-color:rgb(0%,0%,0%);stop-opacity:0.27451;"/>
<stop offset="1" style="stop-color:rgb(0%,0%,0%);stop-opacity:0;"/>
</linearGradient>
<radialGradient id="radial0" gradientUnits="userSpaceOnUse" cx="450.908936" cy="189.579361" fx="450.908936" fy="189.579361" r="21.166656" gradientTransform="matrix(0.000000348341,-0.156265,-0.281277,-0.000000203077,97.64609,127.190665)">
<stop offset="0" style="stop-color:rgb(0%,0%,0%);stop-opacity:0.313726;"/>
<stop offset="0.222222" style="stop-color:rgb(0%,0%,0%);stop-opacity:0.27451;"/>
<stop offset="1" style="stop-color:rgb(0%,0%,0%);stop-opacity:0;"/>
</radialGradient>
<radialGradient id="radial1" gradientUnits="userSpaceOnUse" cx="450.908936" cy="189.579361" fx="450.908936" fy="189.579361" r="21.166656" gradientTransform="matrix(-0.000000348341,0.156265,0.281277,0.000000203077,-35.463065,-15.054958)">
<stop offset="0" style="stop-color:rgb(0%,0%,0%);stop-opacity:0.313726;"/>
<stop offset="0.222222" style="stop-color:rgb(0%,0%,0%);stop-opacity:0.27451;"/>
<stop offset="1" style="stop-color:rgb(0%,0%,0%);stop-opacity:0;"/>
</radialGradient>
<radialGradient id="radial2" gradientUnits="userSpaceOnUse" cx="450.908936" cy="189.579361" fx="450.908936" fy="189.579361" r="21.166656" gradientTransform="matrix(-0.000000348341,-0.156265,0.281277,-0.000000203077,-35.463065,127.190665)">
<stop offset="0" style="stop-color:rgb(0%,0%,0%);stop-opacity:0.313726;"/>
<stop offset="0.222222" style="stop-color:rgb(0%,0%,0%);stop-opacity:0.27451;"/>
<stop offset="1" style="stop-color:rgb(0%,0%,0%);stop-opacity:0;"/>
</radialGradient>
<radialGradient id="radial3" gradientUnits="userSpaceOnUse" cx="450.908936" cy="189.579361" fx="450.908936" fy="189.579361" r="21.166656" gradientTransform="matrix(0.000000348341,0.156265,-0.281277,0.000000203077,97.646086,-15.054959)">
<stop offset="0" style="stop-color:rgb(0%,0%,0%);stop-opacity:0.313726;"/>
<stop offset="0.222222" style="stop-color:rgb(0%,0%,0%);stop-opacity:0.27451;"/>
<stop offset="1" style="stop-color:rgb(0%,0%,0%);stop-opacity:0;"/>
</radialGradient>
<linearGradient id="linear1" gradientUnits="userSpaceOnUse" x1="940" y1="1695.118164" x2="940" y2="175.118118" gradientTransform="matrix(0.0330761,0,0,0.0330761,0,0)">
<stop offset="0" style="stop-color:rgb(93.333334%,93.333334%,93.333334%);stop-opacity:1;"/>
<stop offset="1" style="stop-color:rgb(96.078432%,96.078432%,96.078432%);stop-opacity:1;"/>
</linearGradient>
<linearGradient id="linear2" gradientUnits="userSpaceOnUse" x1="940" y1="1695.118164" x2="940" y2="175.118118" gradientTransform="matrix(0.0330761,0,0,0.0330761,0,0)">
<stop offset="0" style="stop-color:rgb(92.54902%,25.098041%,47.843137%);stop-opacity:1;"/>
<stop offset="1" style="stop-color:rgb(94.117647%,38.431373%,57.254905%);stop-opacity:1;"/>
</linearGradient>
<linearGradient id="linear3" gradientUnits="userSpaceOnUse" x1="940" y1="1215.118164" x2="940" y2="655.118103" gradientTransform="matrix(0.0330761,0,0,0.0330761,0,0)">
<stop offset="0" style="stop-color:rgb(92.54902%,25.098041%,47.843137%);stop-opacity:1;"/>
<stop offset="1" style="stop-color:rgb(94.117647%,38.431373%,57.254905%);stop-opacity:1;"/>
</linearGradient>
</defs>
<g id="surface1">
<path style=" stroke:none;fill-rule:nonzero;fill:url(#linear0);" d="M 17.199219 56.066406 L 44.984375 56.066406 L 44.984375 58.714844 L 17.199219 58.714844 Z M 17.199219 56.066406 "/>
<path style=" stroke:none;fill-rule:nonzero;fill:url(#radial0);" d="M 44.984375 56.066406 L 50.277344 56.066406 L 50.277344 53.421875 L 44.984375 53.421875 Z M 44.984375 56.066406 "/>
<path style=" stroke:none;fill-rule:nonzero;fill:url(#radial1);" d="M 17.199219 56.066406 L 11.90625 56.066406 L 11.90625 58.714844 L 17.199219 58.714844 Z M 17.199219 56.066406 "/>
<path style=" stroke:none;fill-rule:nonzero;fill:url(#radial2);" d="M 17.199219 56.066406 L 11.90625 56.066406 L 11.90625 53.421875 L 17.199219 53.421875 Z M 17.199219 56.066406 "/>
<path style=" stroke:none;fill-rule:nonzero;fill:url(#radial3);" d="M 44.984375 56.066406 L 50.277344 56.066406 L 50.277344 58.714844 L 44.984375 58.714844 Z M 44.984375 56.066406 "/>
<path style=" stroke:none;fill-rule:nonzero;fill:url(#linear1);" d="M 14.554688 5.792969 C 13.085938 5.792969 11.90625 6.972656 11.90625 8.4375 L 11.90625 53.421875 C 11.90625 54.886719 13.085938 56.066406 14.554688 56.066406 L 47.628906 56.066406 C 49.09375 56.066406 50.277344 54.886719 50.277344 53.421875 L 50.277344 17.699219 L 38.367188 5.792969 Z M 41.015625 5.792969 L 50.277344 15.054688 L 50.277344 8.4375 C 50.277344 6.972656 49.09375 5.792969 47.628906 5.792969 Z M 41.015625 5.792969 "/>
<path style=" stroke:none;fill-rule:nonzero;fill:url(#linear2);" d="M 41.015625 5.792969 L 50.277344 15.054688 L 50.277344 8.4375 C 50.277344 6.972656 49.09375 5.792969 47.628906 5.792969 Z M 41.015625 5.792969 "/>
<path style=" stroke:none;fill-rule:nonzero;fill:rgb(100%,100%,100%);fill-opacity:0.392157;" d="M 14.554688 5.792969 C 13.085938 5.792969 11.90625 6.972656 11.90625 8.4375 L 11.90625 9.101562 C 11.90625 7.632812 13.085938 6.453125 14.554688 6.453125 L 38.367188 6.453125 L 50.277344 18.359375 L 50.277344 17.699219 L 38.367188 5.792969 Z M 41.015625 5.792969 L 41.675781 6.453125 L 47.628906 6.453125 C 49.09375 6.453125 50.277344 7.632812 50.277344 9.101562 L 50.277344 8.4375 C 50.277344 6.972656 49.09375 5.792969 47.628906 5.792969 Z M 41.015625 5.792969 "/>
<path style=" stroke:none;fill-rule:nonzero;fill:rgb(0%,0%,0%);fill-opacity:0.235294;" d="M 41.015625 5.792969 L 50.277344 15.054688 L 50.277344 14.070312 L 41.996094 5.792969 Z M 11.90625 52.441406 L 11.90625 53.421875 C 11.90625 54.886719 13.085938 56.066406 14.554688 56.066406 L 47.628906 56.066406 C 49.09375 56.066406 50.277344 54.886719 50.277344 53.421875 L 50.277344 52.441406 C 50.277344 53.90625 49.09375 55.085938 47.628906 55.085938 L 14.554688 55.085938 C 13.085938 55.085938 11.90625 53.90625 11.90625 52.441406 Z M 11.90625 52.441406 "/>
<path style=" stroke:none;fill-rule:nonzero;fill:rgb(12.941177%,12.941177%,12.941177%);fill-opacity:1;" d="M 14.554688 5.605469 C 12.988281 5.605469 11.71875 6.871094 11.71875 8.4375 L 11.71875 53.421875 C 11.71875 54.988281 12.988281 56.253906 14.554688 56.253906 L 47.628906 56.253906 C 49.195312 56.253906 50.464844 54.988281 50.464844 53.421875 L 50.464844 17.699219 C 50.464844 17.648438 50.445312 17.601562 50.410156 17.566406 L 38.5 5.660156 C 38.464844 5.625 38.417969 5.605469 38.367188 5.605469 Z M 41.015625 5.605469 C 40.9375 5.605469 40.871094 5.648438 40.839844 5.71875 C 40.8125 5.789062 40.828125 5.871094 40.882812 5.925781 L 50.144531 15.1875 C 50.195312 15.238281 50.277344 15.253906 50.347656 15.226562 C 50.417969 15.199219 50.464844 15.128906 50.464844 15.054688 L 50.464844 8.4375 C 50.464844 6.871094 49.195312 5.605469 47.628906 5.605469 Z M 14.554688 5.980469 L 38.289062 5.980469 L 50.089844 17.777344 L 50.089844 53.421875 C 50.089844 54.785156 48.996094 55.878906 47.628906 55.878906 L 14.554688 55.878906 C 13.1875 55.878906 12.09375 54.785156 12.09375 53.421875 L 12.09375 8.4375 C 12.09375 7.074219 13.1875 5.980469 14.554688 5.980469 Z M 41.46875 5.980469 L 47.628906 5.980469 C 48.996094 5.980469 50.089844 7.074219 50.089844 8.4375 L 50.089844 14.601562 Z M 41.46875 5.980469 "/>
<path style=" stroke:none;fill-rule:nonzero;fill:url(#linear3);" d="M 31.089844 21.667969 C 26.328125 21.667969 22.492188 23.4375 22.492188 25.636719 C 22.492188 27.835938 26.328125 29.605469 31.089844 29.605469 C 35.855469 29.605469 39.691406 27.835938 39.691406 25.636719 C 39.691406 23.4375 35.855469 21.667969 31.089844 21.667969 Z M 23.636719 28.945312 C 22.90625 29.527344 22.492188 30.207031 22.492188 30.929688 C 22.492188 33.128906 26.328125 34.898438 31.089844 34.898438 C 35.855469 34.898438 39.691406 33.128906 39.691406 30.929688 C 39.691406 30.207031 39.277344 29.527344 38.546875 28.945312 C 37.066406 30.132812 34.289062 30.929688 31.089844 30.929688 C 27.894531 30.929688 25.117188 30.132812 23.636719 28.945312 Z M 23.636719 34.238281 C 22.90625 34.820312 22.492188 35.5 22.492188 36.222656 C 22.492188 38.421875 26.328125 40.191406 31.089844 40.191406 C 35.855469 40.191406 39.691406 38.421875 39.691406 36.222656 C 39.691406 35.5 39.277344 34.820312 38.546875 34.238281 C 37.066406 35.425781 34.289062 36.222656 31.089844 36.222656 C 27.894531 36.222656 25.117188 35.425781 23.636719 34.238281 Z M 23.636719 34.238281 "/>
<path style=" stroke:none;fill-rule:nonzero;fill:rgb(100%,100%,100%);fill-opacity:0.392157;" d="M 31.089844 21.667969 C 26.328125 21.667969 22.492188 23.4375 22.492188 25.636719 C 22.492188 25.75 22.503906 25.859375 22.519531 25.96875 C 22.882812 23.925781 26.570312 22.332031 31.089844 22.332031 C 35.613281 22.332031 39.300781 23.925781 39.660156 25.96875 C 39.679688 25.859375 39.691406 25.75 39.691406 25.636719 C 39.691406 23.4375 35.855469 21.667969 31.089844 21.667969 Z M 23.636719 28.945312 C 22.90625 29.527344 22.492188 30.207031 22.492188 30.929688 C 22.492188 31.039062 22.503906 31.152344 22.519531 31.257812 C 22.628906 30.660156 23.019531 30.101562 23.636719 29.605469 C 25.117188 30.796875 27.894531 31.589844 31.089844 31.589844 C 34.289062 31.589844 37.066406 30.796875 38.546875 29.605469 C 39.164062 30.101562 39.554688 30.660156 39.660156 31.257812 C 39.679688 31.152344 39.691406 31.039062 39.691406 30.929688 C 39.691406 30.207031 39.277344 29.527344 38.546875 28.945312 C 37.066406 30.132812 34.289062 30.929688 31.089844 30.929688 C 27.894531 30.929688 25.117188 30.132812 23.636719 28.945312 Z M 23.636719 34.238281 C 22.90625 34.820312 22.492188 35.5 22.492188 36.222656 C 22.492188 36.332031 22.503906 36.441406 22.519531 36.550781 C 22.628906 35.953125 23.019531 35.390625 23.636719 34.898438 C 25.117188 36.085938 27.894531 36.882812 31.089844 36.882812 C 34.289062 36.882812 37.066406 36.085938 38.546875 34.898438 C 39.164062 35.390625 39.554688 35.953125 39.660156 36.550781 C 39.679688 36.441406 39.691406 36.332031 39.691406 36.222656 C 39.691406 35.5 39.277344 34.820312 38.546875 34.238281 C 37.066406 35.425781 34.289062 36.222656 31.089844 36.222656 C 27.894531 36.222656 25.117188 35.425781 23.636719 34.238281 Z M 23.636719 34.238281 "/>
<path style=" stroke:none;fill-rule:nonzero;fill:rgb(0%,0%,0%);fill-opacity:0.235294;" d="M 22.558594 26.132812 C 22.515625 26.296875 22.492188 26.460938 22.492188 26.628906 C 22.492188 28.828125 26.328125 30.597656 31.089844 30.597656 C 35.855469 30.597656 39.691406 28.828125 39.691406 26.628906 C 39.691406 26.460938 39.667969 26.296875 39.625 26.132812 C 39.097656 28.097656 35.492188 29.605469 31.089844 29.605469 C 26.691406 29.605469 23.082031 28.097656 22.558594 26.132812 Z M 22.558594 31.425781 C 22.515625 31.589844 22.492188 31.753906 22.492188 31.921875 C 22.492188 34.121094 26.328125 35.890625 31.089844 35.890625 C 35.855469 35.890625 39.691406 34.121094 39.691406 31.921875 C 39.691406 31.753906 39.667969 31.589844 39.625 31.425781 C 39.097656 33.390625 35.492188 34.898438 31.089844 34.898438 C 26.691406 34.898438 23.082031 33.390625 22.558594 31.425781 Z M 22.558594 36.71875 C 22.515625 36.878906 22.492188 37.046875 22.492188 37.214844 C 22.492188 39.414062 26.328125 41.183594 31.089844 41.183594 C 35.855469 41.183594 39.691406 39.414062 39.691406 37.214844 C 39.691406 37.046875 39.667969 36.878906 39.625 36.71875 C 39.097656 38.679688 35.492188 40.191406 31.089844 40.191406 C 26.691406 40.191406 23.082031 38.679688 22.558594 36.71875 Z M 22.558594 36.71875 "/>
<path style="fill:none;stroke-width:11.338583;stroke-linecap:round;stroke-linejoin:round;stroke:rgb(12.941177%,12.941177%,12.941177%);stroke-opacity:1;stroke-miterlimit:4;" d="M 939.949659 655.094956 C 795.987021 655.094956 680.013838 708.593787 680.013838 775.083504 C 680.013838 841.573221 795.987021 895.072052 939.949659 895.072052 C 1084.030396 895.072052 1200.003579 841.573221 1200.003579 775.083504 C 1200.003579 708.593787 1084.030396 655.094956 939.949659 655.094956 Z M 714.616834 875.113327 C 692.532328 892.710073 680.013838 913.259293 680.013838 935.107601 C 680.013838 1001.597318 795.987021 1055.096149 939.949659 1055.096149 C 1084.030396 1055.096149 1200.003579 1001.597318 1200.003579 935.107601 C 1200.003579 913.259293 1187.485088 892.710073 1165.400582 875.113327 C 1120.641075 911.015412 1036.672711 935.107601 939.949659 935.107601 C 843.344706 935.107601 759.376342 911.015412 714.616834 875.113327 Z M 714.616834 1035.137424 C 692.532328 1052.73417 680.013838 1073.28339 680.013838 1095.131698 C 680.013838 1161.621415 795.987021 1215.120246 939.949659 1215.120246 C 1084.030396 1215.120246 1200.003579 1161.621415 1200.003579 1095.131698 C 1200.003579 1073.28339 1187.485088 1052.73417 1165.400582 1035.137424 C 1120.641075 1071.039509 1036.672711 1095.131698 939.949659 1095.131698 C 843.344706 1095.131698 759.376342 1071.039509 714.616834 1035.137424 Z M 714.616834 1035.137424 " transform="matrix(0.0330761,0,0,0.0330761,0,0)"/>
</g>
</svg>

<svg xmlns="http://www.w3.org/2000/svg" xmlns:xlink="http://www.w3.org/1999/xlink" width="64pt" height="64pt" viewBox="0 0 64 64"><defs><linearGradient id="k" gradientUnits="userSpaceOnUse" x1="254" y1="233.5" x2="254" y2="254.667" gradientTransform="translate(0 26.878) scale(.12501)"><stop offset="0" stop-opacity=".275"/><stop offset="1" stop-opacity="0"/></linearGradient><radialGradient id="l" gradientUnits="userSpaceOnUse" cx="450.909" cy="189.579" fx="450.909" fy="189.579" r="21.167" gradientTransform="matrix(0 -.15626 -.28128 0 97.646 127.19)"><stop offset="0" stop-opacity=".314"/><stop offset=".222" stop-opacity=".275"/><stop offset="1" stop-opacity="0"/></radialGradient><radialGradient id="m" gradientUnits="userSpaceOnUse" cx="450.909" cy="189.579" fx="450.909" fy="189.579" r="21.167" gradientTransform="matrix(0 .15626 .28128 0 -35.463 -15.055)"><stop offset="0" stop-opacity=".314"/><stop offset=".222" stop-opacity=".275"/><stop offset="1" stop-opacity="0"/></radialGradient><radialGradient id="n" gradientUnits="userSpaceOnUse" cx="450.909" cy="189.579" fx="450.909" fy="189.579" r="21.167" gradientTransform="matrix(0 -.15626 .28128 0 -35.463 127.19)"><stop offset="0" stop-opacity=".314"/><stop offset=".222" stop-opacity=".275"/><stop offset="1" stop-opacity="0"/></radialGradient><radialGradient id="o" gradientUnits="userSpaceOnUse" cx="450.909" cy="189.579" fx="450.909" fy="189.579" r="21.167" gradientTransform="matrix(0 .15626 -.28128 0 97.646 -15.055)"><stop offset="0" stop-opacity=".314"/><stop offset=".222" stop-opacity=".275"/><stop offset="1" stop-opacity="0"/></radialGradient><filter id="a" filterUnits="objectBoundingBox" x="0%" y="0%" width="100%" height="100%"><feColorMatrix in="SourceGraphic" values="0 0 0 0 1 0 0 0 0 1 0 0 0 0 1 0 0 0 1 0"/></filter><mask id="q"><path fill-opacity=".988" d="M0 0h64v64H0z" filter="url(#a)"/></mask><linearGradient id="c" gradientUnits="userSpaceOnUse" x1="940" y1="1695.118" x2="940" y2="175.118" gradientTransform="scale(.03308)"><stop offset="0" stop-color="#eee"/><stop offset="1" stop-color="#f5f5f5"/></linearGradient><clipPath id="b"><path d="M0 0h64v64H0z"/></clipPath><g id="p" clip-path="url(#b)"><path d="M14.555 5.793a2.64 2.64 0 0 0-2.649 2.644v44.985a2.64 2.64 0 0 0 2.649 2.644h33.074a2.642 2.642 0 0 0 2.648-2.644V17.699L38.367 5.793zm26.46 0l9.262 9.262V8.438a2.642 2.642 0 0 0-2.648-2.645zm0 0" fill="url(#c)"/></g><mask id="s"><path fill-opacity=".988" d="M0 0h64v64H0z" filter="url(#a)"/></mask><linearGradient id="e" gradientUnits="userSpaceOnUse" x1="940" y1="1695.118" x2="940" y2="175.118" gradientTransform="scale(.03308)"><stop offset="0" stop-color="#ec407a"/><stop offset="1" stop-color="#f06292"/></linearGradient><clipPath id="d"><path d="M0 0h64v64H0z"/></clipPath><g id="r" clip-path="url(#d)"><path d="M41.016 5.793l9.261 9.262V8.438a2.642 2.642 0 0 0-2.648-2.645zm0 0" fill="url(#e)"/></g><mask id="u"><path fill-opacity=".988" d="M0 0h64v64H0z" filter="url(#a)"/></mask><clipPath id="f"><path d="M0 0h64v64H0z"/></clipPath><g id="t" clip-path="url(#f)"><path d="M14.555 5.793a2.64 2.64 0 0 0-2.649 2.644v.665a2.64 2.64 0 0 1 2.649-2.649h23.812l11.91 11.906v-.66L38.367 5.793zm26.46 0l.66.66h5.954a2.643 2.643 0 0 1 2.648 2.649v-.665a2.642 2.642 0 0 0-2.648-2.644zm0 0" fill="#fff" fill-opacity=".392"/></g><mask id="w"><path fill-opacity=".988" d="M0 0h64v64H0z" filter="url(#a)"/></mask><clipPath id="g"><path d="M0 0h64v64H0z"/></clipPath><g id="v" clip-path="url(#g)"><path d="M41.016 5.793l9.261 9.262v-.985l-8.28-8.277zm-29.11 46.648v.98a2.64 2.64 0 0 0 2.649 2.645h33.074a2.642 2.642 0 0 0 2.648-2.644v-.98a2.642 2.642 0 0 1-2.648 2.644H14.555a2.64 2.64 0 0 1-2.649-2.645zm0 0" fill-opacity=".235"/></g><mask id="y"><path fill-opacity=".988" d="M0 0h64v64H0z" filter="url(#a)"/></mask><clipPath id="h"><path d="M0 0h64v64H0z"/></clipPath><g id="x" clip-path="url(#h)"><path d="M14.555 5.605a2.832 2.832 0 0 0-2.836 2.832v44.985a2.832 2.832 0 0 0 2.836 2.832h33.074a2.832 2.832 0 0 0 2.836-2.832V17.699c0-.05-.02-.097-.055-.133L38.5 5.66a.186.186 0 0 0-.133-.055zm26.46 0a.188.188 0 0 0-.175.114.194.194 0 0 0 .043.207l9.262 9.261c.05.051.132.067.203.04a.187.187 0 0 0 .117-.172V8.438a2.832 2.832 0 0 0-2.836-2.833zm-26.46.375h23.734l11.8 11.797v35.645a2.45 2.45 0 0 1-2.46 2.457H14.555a2.45 2.45 0 0 1-2.461-2.457V8.438a2.45 2.45 0 0 1 2.46-2.458zm26.914 0h6.16a2.45 2.45 0 0 1 2.46 2.457v6.165zm0 0" fill="#212121"/></g><mask id="A"><path fill-opacity=".988" d="M0 0h64v64H0z" filter="url(#a)"/></mask><linearGradient id="j" gradientUnits="userSpaceOnUse" x1="940" y1="1215.118" x2="940" y2="655.118"><stop offset="0" stop-color="#ec407a"/><stop offset="1" stop-color="#f06292"/></linearGradient><clipPath id="i"><path d="M0 0h64v64H0z"/></clipPath><g id="z" clip-path="url(#i)"><path d="M939.95 655.095c-143.963 0-259.936 53.499-259.936 119.989 0 66.49 115.973 119.988 259.936 119.988 144.08 0 260.054-53.499 260.054-119.988 0-66.49-115.974-119.989-260.054-119.989zM714.617 875.113c-22.085 17.597-34.603 38.146-34.603 59.995 0 66.49 115.973 119.988 259.936 119.988 144.08 0 260.054-53.499 260.054-119.988 0-21.849-12.519-42.398-34.603-59.995-44.76 35.902-128.728 59.995-225.451 59.995-96.605 0-180.574-24.093-225.333-59.995zm0 160.024c-22.085 17.597-34.603 38.146-34.603 59.995 0 66.49 115.973 119.988 259.936 119.988 144.08 0 260.054-53.499 260.054-119.988 0-21.849-12.519-42.398-34.603-59.995-44.76 35.903-128.728 59.995-225.451 59.995-96.605 0-180.574-24.092-225.333-59.995zm0 0" transform="scale(.03308)" fill="url(#j)" stroke-width="11.339" stroke-linecap="round" stroke-linejoin="round" stroke="#212121"/></g></defs><path d="M17.2 56.066h27.784v2.649H17.2zm0 0" fill="url(#k)"/><path d="M44.984 56.066h5.293v-2.644h-5.293zm0 0" fill="url(#l)"/><path d="M17.2 56.066h-5.294v2.649H17.2zm0 0" fill="url(#m)"/><path d="M17.2 56.066h-5.294v-2.644H17.2zm0 0" fill="url(#n)"/><path d="M44.984 56.066h5.293v2.649h-5.293zm0 0" fill="url(#o)"/><use xlink:href="#p" mask="url(#q)"/><use xlink:href="#r" mask="url(#s)"/><use xlink:href="#t" mask="url(#u)"/><use xlink:href="#v" mask="url(#w)"/><use xlink:href="#x" mask="url(#y)"/><use xlink:href="#z" mask="url(#A)"/></svg>
